X: 30
T: Planxty Fanny Power
O: Turlough O'Carolan (1670-1738)
M: 3/4
L: 1/8
K: G
D2 |\
"G"G4 D2 | G3 A B2 | "Am"c4 B2 | A4 G2 |\
"D7"F4 E2 | D3 E D2 | F4 G2 | A4 Bc |
"G"B3 A G2 | B2 c2 d2 | "C"e4 A2 | "Am"A4 G2 |\
"D7"F3 E D2 | D2 E2 F2 | "G(C)"G4 G2 | "G"G4 :|
|: d2 |\
"G"d2 Bc d2 | "G/F#"d2 Bc d2 | "G/E"G3 A G2 | "G/D"G2 B2 d2 |\
"C"e2 cd e2 | "C/B"e2 cd e2 | "Am"A3 B A2 | "D"A4 dc |
"G"B3 c d2 | "C"e2 f2 g2 | "D"f3 g a2 | d4 c2 "^I"|\
"G"B3 A G2 | "D7"A c3 F2 | "G(C)"G4 G2 | "G"G4 :|


